packages/icons/web/messenger_large.svg

<svg width="24" height="24" viewBox="0 0 24 24" fill="none" xmlns="http://www.w3.org/2000/svg">
<path fill-rule="evenodd" clip-rule="evenodd" d="M12.9937 14.4691L10.4472 11.7531L5.47828 14.4691L10.9441 8.66656L13.5528 11.3827L18.4597 8.66656L12.9937 14.4691ZM12 2C6.47719 2 2 6.14547 2 11.2592C2 14.1731 3.45422 16.7722 5.72672 18.4695V22L9.13156 20.1313C10.0403 20.3827 11.003 20.5184 12 20.5184C17.5228 20.5184 22 16.373 22 11.2592C22 6.14547 17.5228 2 12 2Z" fill="#212933"/>
</svg>

<svg width="24" height="24" fill="none" xmlns="http://www.w3.org/2000/svg">
    <path fill-rule="evenodd" clip-rule="evenodd" d="M12.994 14.47l-2.547-2.717-4.969 2.716 5.466-5.802 2.609 2.716 4.907-2.716-5.466 5.802zM12 2C6.477 2 2 6.145 2 11.26c0 2.913 1.454 5.512 3.727 7.21V22l3.405-1.869c.908.252 1.871.387 2.868.387 5.523 0 10-4.145 10-9.259C22 6.145 17.523 2 12 2z" fill="currentColor"/>
</svg>
